X: 1
T: Mother And Child, Peata Beag mo Mhthar
C:Alan Doherty on Grda's album Endeavour
M: 4/4
L: 1/8
R: reel
K: Dmaj
A2GE FDDF|E(G ~G2) E(G ~G2)|A2GE FEDF|EF (3GFE A2AG|
AFGE FDDF|E(G ~G2) E(G ~G2)|A2GE FEDF|EF (3GFE A2AG|
AFGA F2 z D|E(G ~G2) E(G ~G2)|A2GE FEDF|EF (3GFE A2AG|
AFGE  (3FGA ED|E(G ~G2) E(G ~G2)|A2GE FEDF|EF (3GFE A2 (3cBA|
|c2 z A (3Bcd eg|fdef dcAG|EAAG  (3Bcd eg| ffe.f d2 z2|
|c2 z A (3Bcd eg|faef dc (3BAG|EAAG  (3Bcd eg| (3fed ef d2 z2|
AFGE FAED|E(G ~G2 G) (3FED (A|A2) (3GFE FAED|EF (3GFE A2AG|
A2FA  (3FED EF|E(G ~G2) E(G ~G2)|A2GE FEDF|EF (3GFE A2 (3cBA|
|z c2  A (3Bcd eg|ffef dcAG|EAAG  (3Bcd eg| (3fed ef d2 z2|
|c2 z A (3Bcd eg|fdef dcAG|E2 AE (3Bcd eg| (3fed ef d2 z2|
a2 (3gfe  faed|e(g ~g2) e(g ~g2)|agge faed|ef (3gfe (a4|
a)bga fa (3fed|e(g ~g2 g) (3fed (a|a2) (3gfe fdfd|ef (3gfe a2 ed|
|c2 z   A (3Bcd eg|(3fed ef dcAG|EAAG  (3Bcd eg| (3fed ef d2 z2|
|z c2 z A (3Bcd eg|ffef dcAG|E2 AE (3Bcd eg| (3fed ef d2 z2||
